X:1
T:Um fado para guitarra (1897)
T:Um fado
T:para guitarra
T:António Augusto Correia de Aguiar
T:Galáxia Sonora Coimbrã 2020 (A. Caetano)
T:Galáxia Sonora Coimbrã 2020 (A. Caetano)
C:António Augusto Correia de Aguiar
Z:Galáxia Sonora Coimbrã 2020 (A. Caetano)
%%score 1 { 2 | 3 }
L:1/8
M:4/4
K:C
V:1 treble-8 nm="Voz"
V:2 treble nm="Piano"
V:3 bass 
V:1
 z2[Q:1/4=110] z2 | z8 | z8 | z8 | z8 | z2 z2 z2 z e |: e3 c c B2 A | d3 B2 ^G2 E | d3 B2 ^G2 E | %9
w: |||||Quan-|do a nou- te ra- la as|tran- ças, Por so-|bre o mun- do dor-|
 e2 e2 z2 z e | e3 c c B2 A | d3 B2 ^G2 E | d3 B2 ^G2 E | e2 e2 z2 z e | d3 e f d2 B | %15
w: men- te, Quan-|do a nou- te ra- la as|tran- ças, Por so-|bre o mun- do dor-|men- te, Sus-|pi- ram as se- re-|
 c/d/e- e2 z2 c2 | B3 c d B2 ^G | A2 A2 z2 z e | d3 e f d2 f | ee- e2 z2 c2 | B3 c d f2 e |1 %21
w: na- a- tas _ Ou-|ve \- se um can- to do-|len- te, Sus-|pi- ram as se- re-|na- tas _ Ou-|ve\-se um can- to do-|
 A2 A2 z4 | z2 z2 z2 z e :|2 A2 A2 z4 | z8 | z8 |] %26
w: len- te.|Quan-||||
V:2
 z2 [ee']2 | [ee']4 [cc'][cc'][Bb][Aa] | [^GBd]2 z2 z2 [dd']2 | [Ee]4 [Bb]>[cc'] (3[dd'][Bb][cc'] | %4
 [Aa]4 z4 | z2 z2 z2 z e |: e z z c cB z A | d z z B z ^G z E | d z z B z ^G z E | e2 e2 z2 z e | %10
 e z z c cB z A | d z z B z ^G z E | d z z B z ^G z E | e4 z2 z e | [^Gd] z z e [Af]d z B | %15
 c/d/e z2 z2 [Ac] z | [^GB] z z [ce] [df][Bd] z [EG] | [EA]4 z2 z e | [^Gd] z z e [Af]d z f | %19
 ee z2 z2 [Ac] z | [^GB] z z [Ac] [Bd][Af] z [Ge] |1 [EA]4 z2 z e | z2 z2 z2 z e :|2 [EA]4 [Ace]4 | %24
 z2 z2 [^GBd] z [EG] z | [CEA]4 z4 |] %26
V:3
 z2 z2 | [E,A,C]4 z4 | [E,^G,D]4 z4 | [E,^G,D]4 z4 | [A,,A,]A,CA, [CE]!fermata!FEC | %5
 [A,,A,]A,CA, [CE] z A, z |: [A,,A,]A,CA, [CE] z A, z | [B,,B,]^G,B,G, [B,D] z G, z | %8
 [E,,B,]^G,B,G, [B,D] z G, z | [A,,A,]A,CA, [CE] z A, z | [A,,A,]A,CA, [CE] z A, z | %11
 [B,,B,]^G,B,G, [B,D] z G, z | [E,,B,]^G,B,G, [B,D] z G, z | [A,,A,]A,CA, [CE] z A, z | %14
 [B,,B,]B,DB, [DF] z B, z | [A,,A,]A,CA, [CE] z A, z | [E,,B,]^G,B,G, [B,D] z G, z | %17
 [A,,A,]A,CA, [CE] z A, z | [B,,B,]B,DB, [DF] z B, z | [A,,A,]A,CA, [CE] z A, z | %20
 [E,,B,]^G,B,G, [B,D] z G, z |1 [A,,A,]A,CA, [CE]FEC | [A,,A,]A,CA, [CE] z A, z :|2 %23
 [A,,A,]A,CA, [CE] z A, z | [E,,E,]^G,B,G, [B,D] z G, z | [A,,E,A,]4 [A,,,A,,]4 |] %26

